packages/kaspersky-hexa-ui-icons/src/iconsSVGs/24/ArrowsVertical.svg

<svg width="24" height="24" viewBox="0 0 24 24" fill="none" xmlns="http://www.w3.org/2000/svg">
<path d="M11.2929 2.29289C11.6834 1.90237 12.3166 1.90237 12.7071 2.29289L16.7071 6.29287C17.0976 6.6834 17.0976 7.31656 16.7071 7.70709C16.3166 8.09761 15.6834 8.09761 15.2929 7.70709L13 5.41421V18.5857L15.2929 16.2929C15.6834 15.9023 16.3166 15.9023 16.7071 16.2929C17.0976 16.6834 17.0976 17.3166 16.7071 17.7071L12.7071 21.7071C12.3166 22.0976 11.6834 22.0976 11.2929 21.7071L7.2929 17.7071C6.90238 17.3166 6.90238 16.6834 7.2929 16.2929C7.68342 15.9023 8.31659 15.9023 8.70711 16.2929L11 18.5857V5.41419L8.7071 7.70708C8.31658 8.0976 7.68341 8.0976 7.29289 7.70708C6.90237 7.31655 6.90237 6.68339 7.2929 6.29286L11.2929 2.29289Z" fill="black"/>
</svg>

<svg xmlns="http://www.w3.org/2000/svg" width="24" height="24" fill="none" viewBox="0 0 24 24"><path fill="#000" d="M11.2929 2.2929c.3905-.3905 1.0237-.3905 1.4142 0l4 4c.3905.3905.3905 1.0237 0 1.4142s-1.0237.3905-1.4142 0L13 5.4142v13.1715l2.2929-2.2928c.3905-.3906 1.0237-.3906 1.4142 0s.3905 1.0237 0 1.4142l-4 4c-.3905.3905-1.0237.3905-1.4142 0l-4-4c-.3905-.3905-.3905-1.0237 0-1.4142.3905-.3906 1.0237-.3906 1.4142 0L11 18.5857V5.4142L8.7071 7.707c-.3905.3905-1.0237.3905-1.4142 0s-.3905-1.0237 0-1.4142z"/></svg>
